X:1
T:Mansfield (Turpin), 87.83
T:Mansfield (Turpin), 87.83
T:Edmund Hart Turpin (1835–1907)
T:Public Domain Courtesy of the Cyber Hymnal™
C:Edmund Hart Turpin (1835–1907)
Z:Public Domain
Z:Courtesy of the Cyber Hymnal™
%%score ( 1 2 ) ( 3 4 )
L:1/8
Q:1/4=112
M:4/4
K:A
V:1 treble 
V:2 treble 
V:3 bass 
V:4 bass 
V:1
 [CE]3 [CE] [CE]2 [CE]2 | [DF]2 [DA]2 [DB]2 [CA]2 | [CA]2 (GF) [Cc]2 [CG]2 | [CA]2 [FB]2 [^Ec]4 | %4
 [Ee]2 [EB]2 [Ed]2 [Ec]2 | [GB]2 [FA]2 [EG]2 [DF]2 | [CE]4 [DB]4 | [CA]8 |] %8
V:2
 x8 | x8 | x2 C2 x4 | x8 | x8 | x8 | x8 | x8 |] %8
V:3
 [A,,A,]3 [A,,A,] [A,,A,]2 [A,,A,]2 | [D,A,]2 [F,A,]2 [E,G,]2 [A,,A,]2 | %2
 [F,A,]2 (B,A,) [^E,G,]2 [E,B,]2 | [F,A,]2 [D,F,]2 [C,G,]4 | [G,B,]2 [G,B,]2 A,2 A,2 | %5
 [D,B,]2 [B,,D]2 [C,E]2 [D,A,]2 | [E,A,]4 [E,G,]4 | [A,,A,]8 |] %8
V:4
 x8 | x8 | x2 F,2 x4 | x8 | x4 A,2 A,2 | x8 | x8 | x8 |] %8

